pa.svg

<?xml version="1.0" encoding="UTF-8" standalone="no"?>
<!-- Created with Inkscape (http://www.inkscape.org/) -->
<svg
   xmlns:svg="http://www.w3.org/2000/svg"
   xmlns="http://www.w3.org/2000/svg"
   id="svg2"
   height="600.00000"
   width="900.00000"
   y="0.00000000"
   x="0.00000000"
   version="1.0">
  <defs
     id="defs3" />
  <g
     id="layer1">
    <rect
       id="rect1329"
       style="fill:#ffffff;fill-opacity:1.0000000;stroke:none;stroke-width:5.0000000;stroke-miterlimit:4.0000000;stroke-dashoffset:0.00000000;stroke-opacity:1.0000000"
       y="0.00000000"
       x="0.00000000"
       height="600.00000"
       width="900.00000" />
    <rect
       id="rect1291"
       style="fill:#ff0000;fill-opacity:1.0000000;stroke:none;stroke-opacity:1.0000000"
       y="0.00000000"
       x="0.00000000"
       height="600.00000"
       width="900.00000" />
    <path
       id="path2052"
       style="fill:#ffffff;fill-opacity:1.0000000;fill-rule:evenodd;stroke:none;stroke-width:1.0000000px;stroke-linecap:butt;stroke-linejoin:miter;stroke-opacity:1.0000000"
       d="M 0.00000000,0.00000000 L 180.00000,0.00000000 L 900.00000,507.00000 L 900.00000,600.00000 L 720.00000,600.00000 L 0.00000000,92.590000 L 0.00000000,0.00000000 z " />
    <path
       id="path2812"
       style="fill:#0074d8;fill-opacity:1.0000000;stroke:none;stroke-opacity:1.0000000"
       d="M 497.02282,364.72136 L 450.00000,330.55728 L 402.97718,364.72136 L 420.93830,309.44272 L 373.91548,275.27864 L 432.03888,275.27864 L 450.00000,220.00000 L 467.96112,275.27864 L 526.08452,275.27864 L 479.06170,309.44272 L 497.02282,364.72136 z " />
  </g>
</svg>

<?xml version="1.0" encoding="UTF-8"?>
<svg version="1.0" viewBox="0 0 900 600" xmlns="http://www.w3.org/2000/svg">
<g>
<rect width="900" height="600" fill="#fff"/>
<rect width="900" height="600" fill="#f00"/>
<path d="m0 0h180l720 507v93h-180l-720-507.41v-92.59z" fill="#fff" fill-rule="evenodd"/>
<path d="m497.02 364.72-47.023-34.164-47.023 34.164 17.961-55.279-47.023-34.164h58.123l17.961-55.279 17.961 55.279h58.123l-47.023 34.164 17.961 55.279z" fill="#0074d8"/>
</g>
</svg>
